!!!OTL: "Der Alpjaeger" I BIN EIN FREIER SCHUETZE
!!!ARE: Europa, Mitteleuropa, Schweiz
!!!SCT: Z1289
!!!YEM: Copyright 1995, estate of Helmut Schaffrath.
**kern
*ICvox
*Ivox
*M2/4
*k[b-e-]
*B-:
{8f
=1
8.b-
16cc
8dd
8ee-
=2
8dd
8ff
8f}
{8ff
=3
8cc
8ff
8f
8a
=4
4.b-}
{8f
=5
8.b-
16cc
8dd
8ee-
=6
8dd
8ff
8f}
{8ff
=7
8cc
8ff
8f
8a
=8
4b-
8r}
{8f
=9
8.cc
16b-
8a
8g
=10
8f
8g
8a}
{8b-
=11
8cc
8a
8cc
8a
=12
4cc
8r}
{8f
=13
8.b-
16cc
8dd
8ee-
=14
8dd
8ff
8f}
{8ff
=15
8cc
8ff
8f
8ff
=16
4b-
8r}
==
!!!AGN: Jaeger - Lied
!!!ONB: ESAC (Essen Associative Code) Database: ZUCCAL
!!!AMT: simple duple
!!!AIN: vox
!!!EED: Helmut Schaffrath
!!!EEV: 1.0
*-
